X: 1
T: Klezmer Kerry Polka #1   [Dm]
C: Rich Sobel
R: polka
Z: 2015 John Chambers <jc:trillian.mit.edu>
M: 2/4
L: 1/16
K: Dm
d2e2 |\
"Dm"fedf "A"ed^ce | "Dm"d2A2 d2e2 |\
fedf "A"ed^ce | "Dm"d4 d2e2 |
"Dm"fedf "A"ed^ce | "Dm"d2A2 "Gm"BAG2 |\
"Dm"AGF2 "A7"GFE2 | "Dm"D4 :|
|: "D7"d4 |\
"Gm"[g4B4] [g3B3]a | {a}b2g2 g4 |\
"Dm"fefg a2f2 | d6 f2 |
"A"e2a2 e2a2 | e2a2 a4 |\
[1 "Dm"d^cde f2g2 | a2f2 :|\
[2 "(Gm)"bag2 "A7"f2e2 | "Dm"d4 |]
